!!!id: EG069
!!!page: 186-187
!!!COM: Anonymous
!!!LYR: Anonymous
!!!PTL@@FR: Chansons Populaires du Canada
!!!OTL@@FR: Papillon tu es volage
!!!PUB: G. E. Desbarats
!!!YEM:
!!!PDT: 1865
!!!SMA:
!!!OMD:
!!!AGN-Laforte:
!!!AGN-type:
!!!AGN-rime:
**kern
*clefG2
*k[]
*a:
*M2/4
*
*
16cc
16b
=1
8a
8b/
8cc
8a
=2
4ee
8ee
16dd
16ee
=3
8ff
8ee
8eeq
8dd
8cc
!!LO:PB:g=original
=4
8ccq
4b
8r
16b
16cc
=5
8dd
8dd
8ddq
8cc
8b
=6
8ccL
8aJ
8b
16cc
16b
=7
8a
8a
8aqq
8.g
16a
!!LO:PB:g=original
=8
8b
16b
16cc
8dd
8b
=9
8cc
16b
16a
8b/
8g
=10
4a
8r
==||
8r
==||
*
*
==|
*-
